assets/img/icons/doc.svg

<svg width="25" height="25" viewBox="0 0 25 25" fill="none" xmlns="http://www.w3.org/2000/svg">
<g clip-path="url(#clip0_364_4018)">
<path d="M12.5 7.29167V0.479167C13.451 0.839583 14.326 1.39479 15.0677 2.13542L18.6969 5.76667C19.4385 6.50729 19.9937 7.38229 20.3542 8.33333H13.5417C12.9667 8.33333 12.5 7.86562 12.5 7.29167ZM11.6156 19.7917H5.20833C4.63229 19.7917 4.16667 19.326 4.16667 18.75C4.16667 18.174 4.63229 17.7083 5.20833 17.7083H11.4583V15.625H5.20833C4.63229 15.625 4.16667 15.1594 4.16667 14.5833C4.16667 14.0073 4.63229 13.5417 5.20833 13.5417H11.4937C11.6667 12.2104 12.4719 11.049 13.649 10.4167H13.5417C11.8187 10.4167 10.4167 9.01458 10.4167 7.29167V0.025C10.249 0.0135417 10.0813 0 9.91146 0H5.20833C2.33646 0 0 2.33646 0 5.20833V19.7917C0 22.6635 2.33646 25 5.20833 25H15.0823C13.6333 23.8312 12.1031 22.101 11.6167 19.7917H11.6156ZM19.8781 24.8521C21.0792 24.3687 25 22.4646 25 18.2667V14.0823C25 13.1844 24.426 12.3896 23.5729 12.1073L19.599 10.7896C19.3875 10.7187 19.1552 10.7187 18.9438 10.7896L14.9698 12.1073C14.1167 12.3896 13.5427 13.1844 13.5427 14.0823V18.2667C13.5427 21.9854 17.4125 24.2073 18.5948 24.7979C18.5948 24.7979 18.9333 25.0156 19.2729 25.0156C19.6125 25.0156 19.8792 24.8531 19.8792 24.8531L19.8781 24.8521Z" fill="#BF1F1F"/>
</g>
<defs>
<clipPath id="clip0_364_4018">
<rect width="25" height="25" fill="white"/>
</clipPath>
</defs>
</svg>

<svg width="25" height="25" fill="none" xmlns="http://www.w3.org/2000/svg"><g clip-path="url(#a)"><path d="M12.5 7.292V.479c.951.36 1.826.916 2.568 1.656l3.629 3.632a7.245 7.245 0 0 1 1.657 2.566h-6.812A1.043 1.043 0 0 1 12.5 7.292Zm-.884 12.5H5.208a1.04 1.04 0 1 1 0-2.084h6.25v-2.083h-6.25a1.04 1.04 0 1 1 0-2.083h6.286a4.156 4.156 0 0 1 2.155-3.125h-.107a3.129 3.129 0 0 1-3.125-3.125V.025C10.249.014 10.08 0 9.91 0H5.208A5.214 5.214 0 0 0 0 5.208v14.584A5.214 5.214 0 0 0 5.208 25h9.874c-1.449-1.169-2.979-2.899-3.465-5.208h-.001Zm8.262 5.06C21.08 24.37 25 22.465 25 18.267v-4.185a2.08 2.08 0 0 0-1.427-1.975l-3.974-1.317a1.036 1.036 0 0 0-.655 0l-3.974 1.317a2.078 2.078 0 0 0-1.427 1.975v4.185c0 3.718 3.87 5.94 5.052 6.53 0 0 .338.219.678.219s.606-.163.606-.163Z" fill="#BF1F1F"/></g><defs><clipPath id="a"><path fill="#fff" d="M0 0h25v25H0z"/></clipPath></defs></svg>
